!!!SOCIAL_FUNCTION:	songs of the drum religion
!!!PDT:	1932
!!!OTL: No_88_Song_for_the_Aide.krn
!!!REG: Wisconsin
!!!LANG: Non-Tone
!!!LING_GROUP: Algonquin
**kern
*staff1
=1-
*clefF4
*k[f#]
*M2/4
4B\
4B\
=2
12B\L
12A\
12F#\J
4F#\
=3
4B\
4A\
=4
12B\L
12A\
12F#\J
4E\
=5
8BB/L
8BB/J
4BB/
=6
8E\L
8E\J
4BB/
=7||
*M5/8
8BB/L
8BB/
8BB/
8BB/J
8r
=8||
*M3/4
12E/L
12BB/
12BB/J
8C/L
8BB/J
8BB/L
8BB/J
=9
2BB/
4r
==
*-
